!!!OTL: D'n E'm Steffen (195), S. 424
!!!id: T0375
**kern
*clefG2
*k[b-]
*F:
{4c
=1
4f
8f
8f
=2
4a
8f
8a
=3
4cc
4cc
=4
4cc}
=5
{4ff
=6
4cc
8a
8a
=7
8b-
8g
8g
8g
=8
4a
4f
=9
4f}
=10
{8a
8a
=11
8g
8g
8g
8g
=12
4g}
=13
{8b-
8b-
=14
8a
8f
8f
8f
=15
4f}
=16
{4ff
=17
4cc
8a
8a
=18
8b-
8g
8g
8g
=19
4a
4f
=20
4f}
==
*-
!!!minrhy: 8
!!!meters: 2/4 ]  ZZ[5
!!!cut: D'n E'm Steffen (195), S. 424
!!!reg: Luxemburg
!!!trd: Singendes Volk, Esch-Alzette, 1937 posth.
!!!rhy1: X_  X_XX  X_XX  X_X_  X_
!!!rhy2: X_  X_XX  XXXX  X_X_  X_
!!!key: T0375  08  F 2/4 ]  ZZ[5
!!!mod: PENTATONIK DUR ?]  AMBITUS[11
!!!kad: 51211
!!!akz: 1355_5431_22_31_5431_
!!!fot: 'a__b__c__d__b__
!!!for: 'a__b__c__c__b__
!!!fok: '/__\__\__\__\__
!! PHRAS[AUFTAKTIG]
!!!fkt: Hochzeits-, Ehestandslied
!!!bem: Junglinster, hhh Vater des Verfassers, 1890
!! THILL; Mathias
!! PR[34] 2K[2] 2G[2] 3K[2] 3G[2] 4A[9] 4Ü[0] 5A[4] 6K[2] 6G[2]
!! 7K[0] 7G[0] 8A[0] MEHR[0] SI[26] ABS[47] SR[4] SP[21]
!! ST[15] 2k[4] 2g[21] 3k[6] 3g[0] 4d[4] 4ü[0] 5d[2] 6k[2] 6g[0]
!! 7k[0] 7g[0] 8d[0] mehr[0] si[40] dm[-14] sr[26] sp[15]
!! 1F[11] 2F[76] 3F[11] 4F[0] LF[0] 2P[0] 3P[2] 4P[0] TRI[0] DF[4] AB[55]
!! TF[0] U3K[0] U3[0] U4[0] U4Ü[0] U5[0] U6K[0] U6[0] U7K[0] U7[0]
!! N1[0] N2K[0] N2[0] N3K[0] N3[6] N4[6] N4Ü[0] N5[29] N6K[0] N6[17]
!!!n7k: 0] N7[13] O1[17] O2K[0] O2[10] O3K[0] O3[2] HÖ[0
